symbolic/22x22/actions/transform-scale-textbox-points.svg

<svg xmlns="http://www.w3.org/2000/svg" width="22" height="22"><defs><style id="current-color-scheme" type="text/css"></style></defs><path style="fill:currentColor;color:#323a41" d="M1 1v4h4V1H1zm10 0v4h4V1h-4zM6 4v1h1V4H6zm3 0v1h1V4H9zM4 6v1h1V6H4zm7 0v1h1V6h-1zM4 9v1h1V9H4zm5 0v2h2v4h2v-4h2V9H9zm-8 2v4h4v-4H1zm5 0v1h1v-1H6z" transform="translate(3 3)"/></svg>

<svg xmlns="http://www.w3.org/2000/svg" width="22" height="22" viewBox="0 0 22 22">
 <defs>
  <style id="current-color-scheme" type="text/css">
   .ColorScheme-Text { color:#323a41; } .ColorScheme-Highlight { color:#4285f4; } .ColorScheme-NeutralText { color:#ff9800; } .ColorScheme-PositiveText { color:#4caf50; } .ColorScheme-NegativeText { color:#f44336; }
  </style>
 </defs>
 <path style="fill:currentColor" class="ColorScheme-Text" d="M 1 1 L 1 5 L 2 5 L 5 5 L 5 2 L 5 1 L 1 1 z M 11 1 L 11 5 L 15 5 L 15 1 L 11 1 z M 6 4 L 6 5 L 7 5 L 7 4 L 6 4 z M 9 4 L 9 5 L 10 5 L 10 4 L 9 4 z M 4 6 L 4 7 L 5 7 L 5 6 L 4 6 z M 11 6 L 11 7 L 12 7 L 12 6 L 11 6 z M 4 9 L 4 10 L 5 10 L 5 9 L 4 9 z M 9 9 L 9 11 L 11 11 L 11 15 L 13 15 L 13 11 L 15 11 L 15 9 L 12 9 L 11 9 L 9 9 z M 1 11 L 1 15 L 5 15 L 5 11 L 1 11 z M 6 11 L 6 12 L 7 12 L 7 11 L 6 11 z" transform="translate(3 3)"/>
</svg>
